; generated by PrusaSlicer 2.7.1+win64 on 2023-12-28 at 22:17:52 UTC

; 

; external perimeters extrusion width = 0.42mm
; perimeters extrusion width = 0.44mm
; infill extrusion width = 0.44mm
; solid infill extrusion width = 0.44mm
; top infill extrusion width = 0.40mm
; support material extrusion width = 0.36mm
; first layer extrusion width = 0.42mm

M201 X500 Y500 Z100 E5000 ; sets maximum accelerations, mm/sec^2
M203 X500 Y500 Z10 E60 ; sets maximum feedrates, mm / sec
M204 S500 T1000 ; sets acceleration (S) and retract acceleration (R), mm/sec^2
M205 X8.00 Y8.00 Z0.40 E5.00 ; sets the jerk limits, mm/sec
M205 S0 T0 ; sets the minimum extruding and travel feed rate, mm/sec

; printing object PA_Main.stl id:0 copy 0
; stop printing object PA_Main.stl id:0 copy 0

;TYPE:Custom
G90 ; use absolute coordinates
M83 ; extruder relative mode
M104 S150 ; set temporary nozzle temp to prevent oozing during homing
M140 S60 ; set final bed temp
G4 S30 ; allow partial nozzle warmup
G28 ; home all axis
G1 Z50 F240
G1 X2.0 Y10 F3000
M104 S205 ; set final nozzle temp
M190 S60 ; wait for bed temp to stabilize
M109 S205 ; wait for nozzle temp to stabilize
G1 Z0.28 F240
G92 E0
G1 X2.0 Y140 E10 F1500 ; prime the nozzle
G1 X2.3 Y140 F5000
G92 E0
G1 X2.3 Y10 E10 F1200 ; prime the nozzle
G92 E0
G21 ; set units to millimeters
G90 ; use absolute coordinates
M83 ; use relative distances for extrusion
; Filament gcode
M107
;LAYER_CHANGE
;Z:0.2
;HEIGHT:0.2
;BEFORE_LAYER_CHANGE
G92 E0
;0.2


G1 E-5 F3600
G1 Z.2 F9000
;AFTER_LAYER_CHANGE
;0.2
G1 X66.87 Y87.382
G1 Z.2
G1 E5 F2400
M204 S500
;TYPE:Skirt/Brim
;WIDTH:0.42
G1 F1200
G1 X68.169 Y86.396 E.05113
G1 X69.5 Y86.123 E.0426
G1 X150.5 Y86.123 E2.5397
G1 X152.083 Y86.517 E.05115
G1 X153.297 Y87.607 E.05116
G1 X153.816 Y88.862 E.04258
G1 X156.316 Y101.862 E.41507
G1 X156.377 Y102.5 E.0201
G1 X156.377 Y130.5 E.87792
G1 X155.983 Y132.083 E.05115
G1 X154.893 Y133.297 E.05116
G1 X153 Y133.877 E.06208
G1 X67 Y133.877 E2.69647
G1 X65.417 Y133.483 E.05115
G1 X64.203 Y132.393 E.05116
G1 X63.623 Y130.5 E.06208
G1 X63.623 Y102.5 E.87792
G1 X63.684 Y101.862 E.0201
G1 X66.184 Y88.862 E.41507
G1 X66.844 Y87.436 E.04927
; printing object PA_Main.stl id:0 copy 0
G1 E-3.5 F3600
;WIPE_START
G1 F7200
G1 X66.87 Y87.382 E-.02847
G1 X68.169 Y86.396 E-.77464
G1 X69.5 Y86.123 E-.64539
G1 X69.608 Y86.123 E-.0515
;WIPE_END
G1 X69.277 Y103.557 F9000
G1 E5 F2400
;TYPE:Perimeter
;WIDTH:0.425853
G1 F1200
G1 X69.785 Y103.553 E.01618
G1 X70.187 Y103.376 E.01399
;WIDTH:0.419999
G1 X70.492 Y102.984 E.01557
G1 X70.564 Y102.621 E.0116
G1 X70.564 Y90.564 E.37804
G1 X95.936 Y90.564 E.79552
G1 X95.936 Y102.621 E.37804
G1 X96.008 Y102.984 E.0116
G1 X96.313 Y103.376 E.01557
G1 X96.879 Y103.563 E.01869
;WIDTH:0.417302
G1 X123.121 Y103.563 E.81691
;WIDTH:0.425853
G1 X123.285 Y103.553 E.00523
G1 X123.687 Y103.376 E.01399
;WIDTH:0.419999
G1 X123.992 Y102.984 E.01557
G1 X124.064 Y102.621 E.0116
G1 X124.064 Y90.564 E.37804
G1 X149.436 Y90.564 E.79552
G1 X149.436 Y102.621 E.37804
G1 X149.508 Y102.984 E.0116
G1 X149.813 Y103.376 E.01557
G1 X150.379 Y103.563 E.01869
;WIDTH:0.417302
G1 X150.621 Y103.563 E.00753
;WIDTH:0.419999
G1 X151.936 Y103.564 E.04123
G1 X151.936 Y103.944 E.01191
G1 X151.937 Y104.879 E.02932
;WIDTH:0.417302
G1 X151.937 Y128.121 E.72352
;WIDTH:0.425852
G1 X151.936 Y129.436 E.04187
;WIDTH:0.419999
G1 X150.621 Y129.437 E.04123
;WIDTH:0.417302
G1 X69.379 Y129.437 E2.52906
;WIDTH:0.419999
G1 X68.064 Y129.436 E.04123
G1 X68.063 Y128.121 E.04123
;WIDTH:0.417302
G1 X68.063 Y104.879 E.72352
;WIDTH:0.419999
G1 X68.064 Y103.564 E.04123
G1 X68.444 Y103.564 E.01191
;WIDTH:0.425853
G1 X69.217 Y103.558 E.02461
G1 X69.717 Y103.155 F9000
;WIDTH:0.419999
G1 F1200
G1 X69.961 Y103.074 E.00806
G1 X70.144 Y102.839 E.00934
G1 X70.187 Y102.621 E.00697
G1 X70.187 Y90.187 E.38986
G1 X96.313 Y90.187 E.81916
G1 X96.313 Y102.621 E.38986
G1 X96.356 Y102.839 E.00697
G1 X96.539 Y103.074 E.00934
G1 X96.879 Y103.187 E.01123
G1 X123.121 Y103.187 E.8228
G1 X123.461 Y103.074 E.01123
G1 X123.644 Y102.839 E.00934
G1 X123.687 Y102.621 E.00697
G1 X123.687 Y90.187 E.38986
G1 X149.813 Y90.187 E.81916
G1 X149.813 Y102.621 E.38986
G1 X149.856 Y102.839 E.00697
G1 X150.039 Y103.074 E.00934
G1 X150.379 Y103.187 E.01123
G1 X152.313 Y103.187 E.06064
G1 X152.313 Y103.944 E.02374
G1 X152.313 Y129.813 E.8111
G1 X67.687 Y129.813 E2.65338
G1 X67.687 Y103.187 E.83484
G1 X69.621 Y103.187 E.06064
G1 X69.66 Y103.174 E.00129
G1 X69.621 Y102.81 F9000
;TYPE:External perimeter
G1 F1200
G1 X69.735 Y102.772 E.00377
G1 X69.81 Y102.621 E.00529
G1 X69.81 Y89.81 E.40168
G1 X96.69 Y89.81 E.8428
G1 X96.69 Y102.621 E.40168
G1 X96.765 Y102.772 E.00529
G1 X96.879 Y102.81 E.00377
G1 X123.121 Y102.81 E.8228
G1 X123.235 Y102.772 E.00377
G1 X123.31 Y102.621 E.00529
G1 X123.31 Y89.81 E.40168
G1 X150.19 Y89.81 E.8428
G1 X150.19 Y102.621 E.40168
G1 X150.265 Y102.772 E.00529
G1 X150.379 Y102.81 E.00377
G1 X152.69 Y102.81 E.07246
G1 X152.69 Y103.944 E.03556
G1 X152.69 Y130.19 E.82292
G1 X67.31 Y130.19 E2.67703
G1 X67.31 Y102.81 E.85848
G1 X69.561 Y102.81 E.07058
G1 X69.109 Y104.003 F9000
;TYPE:Perimeter
;WIDTH:0.425853
G1 F1200
G1 X69.215 Y103.947 E.00382
G1 X70.374 Y103.936 E.03691
;WIDTH:0.419999
G1 X96.879 Y103.937 E.83104
;WIDTH:0.417302
G1 X123.121 Y103.937 E.81691
;WIDTH:0.419999
G1 X123.874 Y103.936 E.02361
G1 X150.379 Y103.937 E.83104
;WIDTH:0.417302
G1 X150.621 Y103.937 E.00753
;WIDTH:0.419999
G1 X151.288 Y104.212 E.02262
G1 X151.563 Y104.879 E.02262
;WIDTH:0.417302
G1 X151.563 Y128.121 E.72352
;WIDTH:0.425852
G1 X151.553 Y128.285 E.00523
G1 X151.288 Y128.788 E.0181
G1 X150.785 Y129.053 E.0181
G1 X150.621 Y129.063 E.00523
;WIDTH:0.417302
G1 X69.379 Y129.063 E2.52906
;WIDTH:0.419999
G1 X68.712 Y128.788 E.02262
;WIDTH:0.425853
G1 X68.447 Y128.285 E.0181
G1 X68.437 Y128.121 E.00523
;WIDTH:0.417302
G1 X68.437 Y104.879 E.72352
;WIDTH:0.419999
G1 X68.712 Y104.212 E.02262
;WIDTH:0.425853
G1 X69.056 Y104.031 E.01238
G1 X69.347 Y104.321 F9000
;WIDTH:0.419999
G1 F1200
G1 X123.874 Y104.313 E1.70965
G1 X150.621 Y104.313 E.83863
G1 X151.021 Y104.479 E.01358
G1 X151.187 Y104.879 E.01358
G1 X151.187 Y128.121 E.72874
G1 X151.179 Y128.219 E.00308
G1 X151.021 Y128.521 E.01069
G1 X150.719 Y128.679 E.01069
G1 X150.621 Y128.687 E.00308
G1 X69.379 Y128.687 E2.54728
G1 X68.979 Y128.521 E.01358
G1 X68.821 Y128.219 E.01069
G1 X68.813 Y104.879 E.73181
G1 X68.979 Y104.479 E.01358
G1 X69.281 Y104.321 E.01069
G1 X69.287 Y104.321 E.00019
G1 X69.379 Y104.69 F9000
;TYPE:External perimeter
G1 F1200
G1 X123.874 Y104.69 E1.70865
G1 X150.621 Y104.69 E.83863
G1 X150.755 Y104.745 E.00454
G1 X150.81 Y104.879 E.00454
G1 X150.81 Y128.121 E.72874
G1 X150.755 Y128.255 E.00454
G1 X150.621 Y128.31 E.00454
G1 X69.379 Y128.31 E2.54728
G1 X69.245 Y128.255 E.00454
G1 X69.19 Y128.121 E.00454
G1 X69.19 Y104.879 E.72874
G1 X69.245 Y104.745 E.00454
G1 X69.323 Y104.713 E.00264
G1 X68.184 Y103.925 F9000
;TYPE:Solid infill
;WIDTH:0.495415
G1 F1200
G1 X68.561 Y104.301 E.02003
G1 E-3.5 F3600
;WIPE_START
G1 F7200
G1 X68.184 Y103.925 E-.25291
;WIPE_END
G1 E-1.24709 F3600
G1 X95.044 Y90.685 F9000
G1 E5 F2400
;WIDTH:0.424061
G1 F1200
G1 X95.646 Y91.286 E.02696
G1 X95.646 Y91.825 E.01708
G1 X94.675 Y90.854 E.04352
G1 X94.136 Y90.854 E.01708
G1 X95.646 Y92.364 E.06768
G1 X95.646 Y92.903 E.01708
G1 X93.597 Y90.854 E.09183
G1 X93.058 Y90.854 E.01708
G1 X95.646 Y93.442 E.11599
G1 X95.646 Y93.981 E.01708
G1 X92.519 Y90.854 E.14015
G1 X91.98 Y90.854 E.01708
G1 X95.646 Y94.52 E.16431
G1 X95.646 Y95.059 E.01708
G1 X91.441 Y90.854 E.18846
G1 X90.902 Y90.854 E.01708
G1 X95.646 Y95.598 E.21262
G1 X95.646 Y96.137 E.01708
G1 X90.363 Y90.854 E.23678
G1 X89.824 Y90.854 E.01708
G1 X95.646 Y96.676 E.26094
G1 X95.646 Y97.215 E.01708
G1 X89.285 Y90.854 E.2851
G1 X88.746 Y90.854 E.01708
G1 X95.646 Y97.754 E.30925
G1 X95.646 Y98.293 E.01708
G1 X88.207 Y90.854 E.33341
G1 X87.668 Y90.854 E.01708
G1 X95.646 Y98.832 E.35757
G1 X95.646 Y99.371 E.01708
G1 X87.129 Y90.854 E.38173
G1 X86.59 Y90.854 E.01708
G1 X95.646 Y99.91 E.40588
G1 X95.646 Y100.449 E.01708
G1 X86.051 Y90.854 E.43004
G1 X85.512 Y90.854 E.01708
G1 X95.646 Y100.988 E.4542
G1 X95.646 Y101.527 E.01708
G1 X84.973 Y90.854 E.47836
G1 X84.434 Y90.854 E.01708
G1 X95.646 Y102.066 E.50251
G1 X95.646 Y102.605 E.01708
G1 X83.895 Y90.854 E.52667
G1 X83.356 Y90.854 E.01708
G1 X96.149 Y103.648 E.5734
G1 X95.61 Y103.648 E.01708
G1 X82.817 Y90.854 E.5734
G1 X82.278 Y90.854 E.01708
G1 X95.071 Y103.648 E.5734
G1 X94.532 Y103.647 E.01708
G1 X81.739 Y90.854 E.57337
G1 X81.2 Y90.854 E.01708
G1 X93.992 Y103.647 E.57335
G1 X93.453 Y103.647 E.01708
G1 X80.661 Y90.854 E.57335
G1 X80.122 Y90.854 E.01708
G1 X92.914 Y103.647 E.57335
G1 X92.375 Y103.647 E.01708
G1 X79.583 Y90.854 E.57335
G1 X79.044 Y90.854 E.01708
G1 X91.836 Y103.647 E.57335
G1 X91.296 Y103.646 E.01711
G1 X78.505 Y90.854 E.57331
G1 X77.966 Y90.854 E.01708
G1 X90.757 Y103.646 E.57331
G1 X90.218 Y103.646 E.01708
G1 X77.427 Y90.854 E.57331
G1 X76.887 Y90.854 E.01711
G1 X89.679 Y103.646 E.57333
G1 X89.14 Y103.646 E.01708
G1 X76.348 Y90.854 E.57333
G1 X75.809 Y90.854 E.01708
G1 X88.601 Y103.646 E.57333
G1 X88.061 Y103.645 E.01711
G1 X75.27 Y90.854 E.57328
G1 X74.731 Y90.854 E.01708
G1 X87.522 Y103.645 E.57328
G1 X86.983 Y103.645 E.01708
G1 X74.192 Y90.854 E.57328
G1 X73.653 Y90.854 E.01708
G1 X86.444 Y103.645 E.57328
G1 X85.905 Y103.645 E.01708
G1 X73.114 Y90.854 E.57328
G1 X72.575 Y90.854 E.01708
G1 X85.365 Y103.645 E.57326
G1 X84.826 Y103.644 E.01708
G1 X72.036 Y90.854 E.57324
G1 X71.497 Y90.854 E.01708
G1 X84.287 Y103.644 E.57324
G1 X83.748 Y103.644 E.01708
G1 X70.958 Y90.854 E.57324
G1 X70.854 Y90.854 E.0033
G1 X70.854 Y91.29 E.01382
G1 X83.209 Y103.644 E.55372
G1 X82.67 Y103.644 E.01708
G1 X70.854 Y91.829 E.52956
G1 X70.854 Y92.368 E.01708
G1 X82.13 Y103.644 E.50538
G1 X81.591 Y103.643 E.01708
G1 X70.854 Y92.907 E.4812
G1 X70.854 Y93.446 E.01708
G1 X81.052 Y103.643 E.45704
G1 X80.513 Y103.643 E.01708
G1 X70.854 Y93.985 E.43289
G1 X70.854 Y94.524 E.01708
G1 X79.974 Y103.643 E.40873
G1 X79.434 Y103.643 E.01711
G1 X70.854 Y95.063 E.38455
G1 X70.854 Y95.602 E.01708
G1 X78.895 Y103.643 E.36039
G1 X78.356 Y103.642 E.01708
G1 X70.854 Y96.141 E.33621
G1 X70.854 Y96.68 E.01708
G1 X77.817 Y103.642 E.31205
G1 X77.278 Y103.642 E.01708
G1 X70.854 Y97.219 E.2879
G1 X70.854 Y97.758 E.01708
G1 X76.738 Y103.642 E.26372
G1 X76.199 Y103.642 E.01708
G1 X70.854 Y98.297 E.23956
G1 X70.854 Y98.836 E.01708
G1 X75.66 Y103.641 E.21538
G1 X75.121 Y103.641 E.01708
G1 X70.854 Y99.375 E.19122
G1 X70.854 Y99.914 E.01708
G1 X74.582 Y103.641 E.16706
G1 X74.043 Y103.641 E.01708
G1 X70.854 Y100.453 E.14291
G1 X70.854 Y100.992 E.01708
G1 X73.503 Y103.641 E.11873
G1 X72.964 Y103.641 E.01708
G1 X70.854 Y101.531 E.09457
G1 X70.854 Y102.07 E.01708
G1 X72.425 Y103.64 E.07039
G1 X71.886 Y103.64 E.01708
G1 X70.854 Y102.609 E.04623
G1 X70.768 Y103.062 E.01461
G1 X71.347 Y103.64 E.02593
G1 X70.807 Y103.64 E.01711
G1 X70.424 Y103.257 E.01717
G1 E-3.5 F3600
;WIPE_START
G1 F7200
G1 X70.807 Y103.64 E-.25728
G1 X71.347 Y103.64 E-.2565
G1 X70.768 Y103.062 E-.38861
G1 X70.854 Y102.609 E-.21902
G1 X71.418 Y103.172 E-.37859
;WIPE_END
G1 X148.544 Y90.685 F9000
G1 E5 F2400
G1 F1200
G1 X149.146 Y91.286 E.02696
G1 X149.146 Y91.825 E.01708
G1 X148.175 Y90.854 E.04352
G1 X147.636 Y90.854 E.01708
G1 X149.146 Y92.364 E.06768
G1 X149.146 Y92.903 E.01708
G1 X147.097 Y90.854 E.09183
G1 X146.558 Y90.854 E.01708
G1 X149.146 Y93.442 E.11599
G1 X149.146 Y93.981 E.01708
G1 X146.019 Y90.854 E.14015
G1 X145.48 Y90.854 E.01708
G1 X149.146 Y94.52 E.16431
G1 X149.146 Y95.059 E.01708
G1 X144.941 Y90.854 E.18846
G1 X144.402 Y90.854 E.01708
G1 X149.146 Y95.598 E.21262
G1 X149.146 Y96.137 E.01708
G1 X143.863 Y90.854 E.23678
G1 X143.324 Y90.854 E.01708
G1 X149.146 Y96.676 E.26094
G1 X149.146 Y97.215 E.01708
G1 X142.785 Y90.854 E.2851
G1 X142.246 Y90.854 E.01708
G1 X149.146 Y97.754 E.30925
G1 X149.146 Y98.293 E.01708
G1 X141.707 Y90.854 E.33341
G1 X141.168 Y90.854 E.01708
G1 X149.146 Y98.832 E.35757
G1 X149.146 Y99.371 E.01708
G1 X140.629 Y90.854 E.38173
G1 X140.09 Y90.854 E.01708
G1 X149.146 Y99.91 E.40588
G1 X149.146 Y100.449 E.01708
G1 X139.551 Y90.854 E.43004
G1 X139.012 Y90.854 E.01708
G1 X149.146 Y100.988 E.4542
G1 X149.146 Y101.527 E.01708
G1 X138.473 Y90.854 E.47836
G1 X137.934 Y90.854 E.01708
G1 X149.146 Y102.066 E.50251
G1 X149.146 Y102.605 E.01708
G1 X137.395 Y90.854 E.52667
G1 X136.856 Y90.854 E.01708
G1 X149.649 Y103.648 E.5734
G1 X149.11 Y103.648 E.01708
G1 X136.317 Y90.854 E.5734
G1 X135.778 Y90.854 E.01708
G1 X148.571 Y103.648 E.5734
G1 X148.032 Y103.647 E.01708
G1 X135.239 Y90.854 E.57337
G1 X134.7 Y90.854 E.01708
G1 X147.492 Y103.647 E.57335
G1 X146.953 Y103.647 E.01708
G1 X134.161 Y90.854 E.57335
G1 X133.622 Y90.854 E.01708
G1 X146.414 Y103.647 E.57335
G1 X145.875 Y103.647 E.01708
G1 X133.083 Y90.854 E.57335
G1 X132.544 Y90.854 E.01708
G1 X145.336 Y103.647 E.57335
G1 X144.796 Y103.646 E.01711
G1 X132.005 Y90.854 E.57331
G1 X131.466 Y90.854 E.01708
G1 X144.257 Y103.646 E.57331
G1 X143.718 Y103.646 E.01708
G1 X130.927 Y90.854 E.57331
G1 X130.387 Y90.854 E.01711
G1 X143.179 Y103.646 E.57333
G1 X142.64 Y103.646 E.01708
G1 X129.848 Y90.854 E.57333
G1 X129.309 Y90.854 E.01708
G1 X142.101 Y103.646 E.57333
G1 X141.561 Y103.645 E.01711
G1 X128.77 Y90.854 E.57328
G1 X128.231 Y90.854 E.01708
G1 X141.022 Y103.645 E.57328
G1 X140.483 Y103.645 E.01708
G1 X127.692 Y90.854 E.57328
G1 X127.153 Y90.854 E.01708
G1 X139.944 Y103.645 E.57328
G1 X139.405 Y103.645 E.01708
G1 X126.614 Y90.854 E.57328
G1 X126.075 Y90.854 E.01708
G1 X138.865 Y103.645 E.57326
G1 X138.326 Y103.644 E.01708
G1 X125.536 Y90.854 E.57324
G1 X124.997 Y90.854 E.01708
G1 X137.787 Y103.644 E.57324
G1 X137.248 Y103.644 E.01708
G1 X124.458 Y90.854 E.57324
G1 X124.354 Y90.854 E.0033
G1 X124.354 Y91.29 E.01382
G1 X136.709 Y103.644 E.55372
G1 X136.17 Y103.644 E.01708
G1 X124.354 Y91.829 E.52956
G1 X124.354 Y92.368 E.01708
G1 X135.63 Y103.644 E.50538
G1 X135.091 Y103.643 E.01708
G1 X124.354 Y92.907 E.4812
G1 X124.354 Y93.446 E.01708
G1 X134.552 Y103.643 E.45704
G1 X134.013 Y103.643 E.01708
G1 X124.354 Y93.985 E.43289
G1 X124.354 Y94.524 E.01708
G1 X133.474 Y103.643 E.40873
G1 X132.934 Y103.643 E.01711
G1 X124.354 Y95.063 E.38455
G1 X124.354 Y95.602 E.01708
G1 X132.395 Y103.643 E.36039
G1 X131.856 Y103.642 E.01708
G1 X124.354 Y96.141 E.33621
G1 X124.354 Y96.68 E.01708
G1 X131.317 Y103.642 E.31205
G1 X130.778 Y103.642 E.01708
G1 X124.354 Y97.219 E.2879
G1 X124.354 Y97.758 E.01708
G1 X130.238 Y103.642 E.26372
G1 X129.699 Y103.642 E.01708
G1 X124.354 Y98.297 E.23956
G1 X124.354 Y98.836 E.01708
G1 X129.16 Y103.641 E.21538
G1 X128.621 Y103.641 E.01708
G1 X124.354 Y99.375 E.19122
G1 X124.354 Y99.914 E.01708
G1 X128.082 Y103.641 E.16706
G1 X127.543 Y103.641 E.01708
G1 X124.354 Y100.453 E.14291
G1 X124.354 Y100.992 E.01708
G1 X127.003 Y103.641 E.11873
G1 X126.464 Y103.641 E.01708
G1 X124.354 Y101.531 E.09457
G1 X124.354 Y102.07 E.01708
G1 X125.925 Y103.64 E.07039
G1 X125.386 Y103.64 E.01708
G1 X124.354 Y102.609 E.04623
G1 X124.268 Y103.062 E.01461
G1 X124.847 Y103.64 E.02593
G1 X124.307 Y103.64 E.01711
G1 X123.924 Y103.257 E.01717
G1 E-3.5 F3600
;WIPE_START
G1 F7200
G1 X124.307 Y103.64 E-.25728
G1 X124.847 Y103.64 E-.2565
G1 X124.268 Y103.062 E-.38861
G1 X124.354 Y102.609 E-.21902
G1 X124.918 Y103.172 E-.37859
;WIPE_END
G1 X151.216 Y128.954 F9000
G1 E5 F2400
;WIDTH:0.495415
G1 F1200
G1 X151.576 Y129.314 E.01916
; stop printing object PA_Main.stl id:0 copy 0
M106 S255
;LAYER_CHANGE
;Z:0.4
;HEIGHT:0.2
;BEFORE_LAYER_CHANGE
G92 E0
;0.4


G1 E-3.5 F3600
;WIPE_START
G1 F7200
G1 X151.216 Y128.954 E-.24183
;WIPE_END
G1 E-1.25817 F3600
G1 Z.4 F9000
;AFTER_LAYER_CHANGE
;0.4
M104 S200 ; set temperature
G1 X151.216 Y133.877
G1 E5 F2400
;TYPE:Skirt/Brim
;WIDTH:0.42
G1 X67 Y133.877 E2.64053
G1 X65.417 Y133.483 E.05115
G1 X64.203 Y132.393 E.05116
G1 X63.623 Y130.5 E.06208
G1 X63.623 Y102.5 E.87792
G1 X63.684 Y101.862 E.0201
G1 X66.184 Y88.862 E.41507
G1 X66.87 Y87.382 E.05115
