; generated by PrusaSlicer 2.7.1+win64 on 2023-12-28 at 22:18:40 UTC

; 

; external perimeters extrusion width = 0.42mm
; perimeters extrusion width = 0.44mm
; infill extrusion width = 0.44mm
; solid infill extrusion width = 0.44mm
; top infill extrusion width = 0.40mm
; first layer extrusion width = 0.42mm

M201 X500 Y500 Z100 E5000 ; sets maximum accelerations, mm/sec^2
M203 X500 Y500 Z10 E60 ; sets maximum feedrates, mm / sec
M204 S500 T1000 ; sets acceleration (S) and retract acceleration (R), mm/sec^2
M205 X8.00 Y8.00 Z0.40 E5.00 ; sets the jerk limits, mm/sec
M205 S0 T0 ; sets the minimum extruding and travel feed rate, mm/sec

; printing object PA_Sensor.stl id:0 copy 0
; stop printing object PA_Sensor.stl id:0 copy 0

;TYPE:Custom
G90 ; use absolute coordinates
M83 ; extruder relative mode
M104 S150 ; set temporary nozzle temp to prevent oozing during homing
M140 S60 ; set final bed temp
G4 S30 ; allow partial nozzle warmup
G28 ; home all axis
G1 Z50 F240
G1 X2.0 Y10 F3000
M104 S205 ; set final nozzle temp
M190 S60 ; wait for bed temp to stabilize
M109 S205 ; wait for nozzle temp to stabilize
G1 Z0.28 F240
G92 E0
G1 X2.0 Y140 E10 F1500 ; prime the nozzle
G1 X2.3 Y140 F5000
G92 E0
G1 X2.3 Y10 E10 F1200 ; prime the nozzle
G92 E0
G21 ; set units to millimeters
G90 ; use absolute coordinates
M83 ; use relative distances for extrusion
; Filament gcode
M107
;LAYER_CHANGE
;Z:0.2
;HEIGHT:0.2
;BEFORE_LAYER_CHANGE
G92 E0
;0.2


G1 E-5 F3600
G1 Z.2 F9000
;AFTER_LAYER_CHANGE
;0.2
G1 X81.869 Y97.762
G1 Z.2
G1 E5 F2400
M204 S500
;TYPE:Skirt/Brim
;WIDTH:0.42
G1 F1200
G1 X82.84 Y97.082 E.03717
G1 X83.546 Y96.704 E.02511
G1 X85.266 Y96.095 E.05721
G1 X108.377 Y91.813 E.73696
G1 X109.571 Y91.655 E.03776
G1 X110.429 Y91.655 E.0269
G1 X111.623 Y91.813 E.03776
G1 X134.734 Y96.095 E.73696
G1 X136.454 Y96.704 E.05721
G1 X137.16 Y97.082 E.02511
G1 X138.131 Y97.762 E.03717
G1 X138.728 Y98.296 E.02511
G1 X139.511 Y99.185 E.03714
G1 X139.965 Y99.844 E.02509
G1 X140.585 Y101.029 E.04193
G1 X149.735 Y120.48 E.67398
G1 X150.105 Y121.396 E.03098
G1 X150.344 Y122.692 E.04132
G1 X150.332 Y123.472 E.02446
G1 X150.057 Y124.761 E.04133
G1 X149.748 Y125.477 E.02445
G1 X149 Y126.562 E.04132
G1 X148.44 Y127.106 E.02448
G1 X147.334 Y127.822 E.04131
G1 X146.609 Y128.11 E.02446
G1 X145.367 Y128.349 E.03966
G1 X130.801 Y128.372 E.45671
G1 X74.637 Y128.349 E1.76098
G1 X73.391 Y128.11 E.03978
G1 X72.666 Y127.822 E.02446
G1 X71.56 Y127.106 E.04131
G1 X71 Y126.562 E.02448
G1 X70.252 Y125.477 E.04132
G1 X69.943 Y124.761 E.02445
G1 X69.668 Y123.472 E.04133
G1 X69.656 Y122.692 E.02446
G1 X69.895 Y121.396 E.04132
G1 X70.265 Y120.48 E.03098
G1 X79.483 Y100.893 E.67875
G1 X80.035 Y99.844 E.03717
G1 X80.489 Y99.185 E.02509
G1 X81.272 Y98.296 E.03714
G1 X81.824 Y97.802 E.02323
; printing object PA_Sensor.stl id:0 copy 0
G1 E-3.5 F3600
;WIPE_START
G1 F7200
G1 X81.869 Y97.762 E-.0286
G1 X82.84 Y97.082 E-.56308
G1 X83.546 Y96.704 E-.38039
G1 X84.594 Y96.333 E-.52793
;WIPE_END
G1 X107.286 Y98.636 F9000
G1 E5 F2400
;TYPE:Perimeter
;WIDTH:0.492728
G1 F1200
G1 X107.306 Y99.052 E.01558
;WIDTH:0.456364
G1 X107.327 Y99.468 E.01432
;WIDTH:0.419999
G1 X107.403 Y99.757 E.00937
G1 X107.706 Y100.43 E.02314
;WIDTH:0.415027
G1 X107.8 Y100.547 E.00464
;WIDTH:0.386048
G1 X107.893 Y100.664 E.00426
;WIDTH:0.40523
G1 X107.927 Y100.728 E.00218
;WIDTH:0.453392
G1 X107.961 Y100.791 E.00244
;WIDTH:0.501553
G1 X107.994 Y100.855 E.00275
;WIDTH:0.549715
G1 X108.028 Y100.918 E.00302
;WIDTH:0.597877
G1 X108.061 Y100.982 E.00332
;WIDTH:0.646038
G1 X108.095 Y101.045 E.00359
G1 X108.031 Y101.023 E.00339
;WIDTH:0.599877
G1 X107.967 Y101.001 E.00313
;WIDTH:0.553715
G1 X107.903 Y100.978 E.00289
;WIDTH:0.507553
G1 X107.839 Y100.956 E.00261
;WIDTH:0.461391
G1 X107.775 Y100.933 E.00237
;WIDTH:0.415229
G1 X107.434 Y100.718 E.01248
;WIDTH:0.419999
G1 X106.891 Y100.679 E.01707
G1 X91.748 Y104.157 E.48716
G1 X91.577 Y104.214 E.00565
G1 X91.26 Y104.442 E.01224
G1 X91.057 Y104.8 E.0129
G1 X90.748 Y105.81 E.03312
G1 X90.319 Y106.564 E.0272
G1 X89.736 Y107.205 E.02717
G1 X89.025 Y107.702 E.0272
G1 X88.223 Y108.032 E.02719
G1 X87.434 Y108.166 E.02509
G1 X86.134 Y108.13 E.04078
G1 X85.719 Y108.294 E.01399
G1 X85.473 Y108.551 E.01115
G1 X77.006 Y121.639 E.48875
G1 X76.697 Y121.238 E.01587
G1 X76.357 Y120.963 E.01371
G1 X75.745 Y120.67 E.02127
G1 X75.439 Y120.596 E.00987
G1 X83.902 Y107.535 E.48797
G1 X84.035 Y107.205 E.01116
G1 X84.049 Y106.94 E.00832
G1 X83.953 Y106.599 E.01111
G1 X83.446 Y105.591 E.03538
G1 X83.235 Y104.684 E.0292
G1 X83.244 Y103.753 E.02919
G1 X83.472 Y102.85 E.0292
G1 X83.905 Y102.026 E.02919
G1 X84.521 Y101.327 E.02921
G1 X85.284 Y100.793 E.0292
G1 X86.151 Y100.453 E.0292
G1 X87.073 Y100.327 E.02918
G1 X88 Y100.422 E.02922
G1 X88.878 Y100.732 E.02919
G1 X89.658 Y101.24 E.02919
G1 X90.432 Y102.061 E.03538
G1 X90.82 Y102.308 E.01442
G1 X90.984 Y102.347 E.00529
G1 X91.329 Y102.333 E.01083
G1 X106.563 Y98.829 E.49012
;WIDTH:0.456364
G1 X106.796 Y98.688 E.00936
;WIDTH:0.492728
G1 X107.028 Y98.546 E.01017
;WIDTH:0.535481
G1 X107.079 Y98.502 E.00276
;WIDTH:0.578234
G1 X107.131 Y98.459 E.003
;WIDTH:0.620987
G1 X107.182 Y98.415 E.00324
;WIDTH:0.66374
G1 X107.234 Y98.371 E.00352
G1 X107.247 Y98.437 E.00347
;WIDTH:0.620987
G1 X107.26 Y98.504 E.00328
;WIDTH:0.578234
G1 X107.273 Y98.57 E.00299
;WIDTH:0.535481
G1 X107.274 Y98.577 E.00029
G1 E-3.5 F3600
;WIPE_START
G1 F7200
G1 X107.286 Y98.636 E-.0286
G1 X107.306 Y99.052 E-.19783
;WIPE_END
G1 E-1.27357 F3600
G1 X89.367 Y105.787 F9000
G1 E5 F2400
;WIDTH:0.419999
G1 F1200
G1 X89.272 Y105.932 E.00544
G1 X88.904 Y106.27 E.01567
G1 X88.457 Y106.63 E.018
G1 X87.484 Y106.949 E.03211
G1 X87.227 Y106.957 E.00806
G1 X86.493 Y106.88 E.02314
G1 X86.12 Y106.759 E.0123
G1 X85.481 Y106.39 E.02314
G1 X85.19 Y106.127 E.0123
G1 X84.757 Y105.531 E.0231
G1 X84.597 Y105.173 E.01229
G1 X84.444 Y104.451 E.02314
G1 X84.444 Y104.059 E.01229
G1 X84.597 Y103.337 E.02314
G1 X84.757 Y102.979 E.01229
G1 X85.19 Y102.382 E.02312
G1 X85.412 Y102.164 E.00976
G1 X85.891 Y101.884 E.0174
G1 X86.248 Y101.69 E.01274
G1 X86.493 Y101.63 E.00791
G1 X87.227 Y101.553 E.02314
G1 X87.617 Y101.594 E.0123
G1 X88.318 Y101.822 E.02311
G1 X88.658 Y102.018 E.0123
G1 X89.206 Y102.511 E.02311
G1 X89.437 Y102.829 E.01232
G1 X89.737 Y103.503 E.02313
G1 X89.818 Y103.886 E.01227
G1 X89.818 Y104.624 E.02314
G1 X89.737 Y105.007 E.01227
G1 X89.437 Y105.681 E.02313
G1 X89.4 Y105.737 E.0021
G1 X89.047 Y105.589 F9000
G1 F1200
G1 X88.954 Y105.718 E.00499
G1 X88.406 Y106.212 E.02313
G1 X88.202 Y106.329 E.00737
G1 X87.5 Y106.557 E.02314
G1 X87.266 Y106.582 E.00738
G1 X86.533 Y106.505 E.02311
G1 X86.309 Y106.432 E.00739
G1 X85.67 Y106.063 E.02314
G1 X85.495 Y105.906 E.00737
G1 X85.062 Y105.309 E.02312
G1 X84.966 Y105.094 E.00738
G1 X84.813 Y104.372 E.02314
G1 X84.833 Y104.039 E.01046
G1 X84.966 Y103.416 E.01997
G1 X85.062 Y103.201 E.00738
G1 X85.495 Y102.604 E.02312
G1 X85.67 Y102.447 E.00737
G1 X86.309 Y102.078 E.02314
G1 X86.533 Y102.005 E.00739
G1 X87.266 Y101.928 E.02311
G1 X87.557 Y101.971 E.00922
G1 X88.202 Y102.18 E.02126
G1 X88.406 Y102.298 E.00739
G1 X88.954 Y102.792 E.02313
G1 X89.092 Y102.982 E.00736
G1 X89.392 Y103.656 E.02313
G1 X89.441 Y103.886 E.00737
G1 X89.441 Y104.624 E.02314
G1 X89.392 Y104.854 E.00737
G1 X89.092 Y105.528 E.02313
G1 X89.083 Y105.541 E.0005
G1 X88.748 Y105.374 F9000
;TYPE:External perimeter
G1 F1200
G1 X88.153 Y105.931 E.02555
G1 X87.625 Y106.12 E.01758
G1 X87.306 Y106.207 E.01037
G1 X86.572 Y106.13 E.02314
G1 X86.012 Y105.825 E.01999
G1 X85.8 Y105.684 E.00798
G1 X85.367 Y105.087 E.02312
G1 X85.189 Y104.332 E.02432
G1 X85.202 Y104.117 E.00675
G1 X85.335 Y103.494 E.01997
G1 X85.8 Y102.826 E.02552
G1 X86.268 Y102.537 E.01725
G1 X86.572 Y102.38 E.01073
G1 X87.306 Y102.303 E.02314
G1 X88.085 Y102.539 E.02552
G1 X88.701 Y103.072 E.02554
G1 X89.048 Y103.809 E.02554
G1 X89.064 Y104.616 E.02531
G1 X88.771 Y105.319 E.02388
G1 E-3.5 F3600
;WIPE_START
G1 F7200
G1 X88.748 Y105.374 E-.02832
G1 X88.153 Y105.931 E-.38714
G1 X87.625 Y106.12 E-.26638
G1 X87.306 Y106.207 E-.15706
G1 X86.572 Y106.13 E-.35056
G1 X86.012 Y105.825 E-.30289
G1 X85.999 Y105.816 E-.00765
;WIPE_END
G1 X76.564 Y123.693 F9000
G1 E5 F2400
;WIDTH:0.626262
G1 F1200
G1 X76.434 Y123.897 E.01173
;WIDTH:0.623874
G1 X76.264 Y124.089 E.01239
;WIDTH:0.598773
G1 X76.094 Y124.282 E.01189
;WIDTH:0.608954
G1 X75.959 Y124.396 E.00832
G1 X75.434 Y124.635 E.02715
;WIDTH:0.59227
G1 X75.316 Y124.666 E.00557
;WIDTH:0.601274
G1 X74.694 Y124.67 E.02888
;WIDTH:0.615744
G1 X74.084 Y124.42 E.0314
G1 X73.907 Y124.281 E.01072
;WIDTH:0.597249
G1 X73.762 Y124.121 E.00995
;WIDTH:0.624584
G1 X73.617 Y123.961 E.01044
G1 X73.542 Y123.82 E.00772
;WIDTH:0.592653
G1 X73.466 Y123.679 E.00732
;WIDTH:0.591656
G1 X73.41 Y123.503 E.00843
;WIDTH:0.62259
G1 X73.354 Y123.327 E.0089
G1 X73.338 Y123.137 E.00919
;WIDTH:0.595612
G1 X73.322 Y122.946 E.00881
;WIDTH:0.598036
G1 X73.335 Y122.824 E.00566
;WIDTH:0.627438
G1 X73.348 Y122.701 E.00601
G1 X73.429 Y122.461 E.01231
;WIDTH:0.601752
G1 X73.51 Y122.222 E.01173
;WIDTH:0.625175
G1 X73.688 Y121.96 E.01534
;WIDTH:0.674284
G1 X73.866 Y121.697 E.01667
G1 E-3.5 F3600
;WIPE_START
G1 F7200
G1 X73.688 Y121.96 E-.15085
;WIPE_END
G1 E-1.34915 F3600
G1 X132.704 Y122.942 F9000
G1 E5 F2400
;WIDTH:0.620806
G1 F1200
G1 X132.686 Y123.142 E.00965
;WIDTH:0.617984
G1 X132.542 Y123.681 E.02668
;WIDTH:0.601354
G1 X132.493 Y123.804 E.00615
G1 X132.099 Y124.291 E.02909
;WIDTH:0.608884
G1 X131.489 Y124.622 E.03266
;WIDTH:0.620792
G1 X130.834 Y124.68 E.0316
G1 X130.702 Y124.654 E.00646
;WIDTH:0.594231
G1 X130.57 Y124.628 E.00617
;WIDTH:0.597544
G1 X130.388 Y124.557 E.00901
;WIDTH:0.627418
G1 X130.207 Y124.486 E.00945
G1 X130.058 Y124.383 E.0088
;WIDTH:0.597165
G1 X129.909 Y124.28 E.00835
;WIDTH:0.597853
G1 X129.805 Y124.175 E.00682
;WIDTH:0.628794
G1 X129.701 Y124.069 E.00723
G1 X129.581 Y123.875 E.01111
;WIDTH:0.600155
G1 X129.461 Y123.681 E.01057
;WIDTH:0.598223
G1 X129.426 Y123.586 E.00467
;WIDTH:0.62493
G1 X129.391 Y123.492 E.00485
G1 X129.319 Y122.975 E.02526
;WIDTH:0.621904
G1 X129.368 Y122.65 E.01582
;WIDTH:0.660304
G1 X129.416 Y122.326 E.01681
G1 X130.287 Y120.662 F9000
;TYPE:Perimeter
;WIDTH:0.419999
G1 F1200
G1 X131.488 Y108.547 E.38172
G1 X131.378 Y108.118 E.01389
G1 X131.275 Y107.964 E.00581
G1 X131.093 Y107.792 E.00785
G1 X130.242 Y107.185 E.03277
G1 X129.669 Y106.548 E.02686
G1 X129.28 Y105.859 E.02481
G1 X128.851 Y104.592 E.04194
G1 X128.579 Y104.301 E.01249
G1 X128.253 Y104.157 E.01117
G1 X113.313 Y100.726 E.48063
G1 X113.051 Y100.668 E.00841
G1 X112.66 Y100.686 E.01227
;WIDTH:0.463684
G1 X112.536 Y100.737 E.00469
;WIDTH:0.507369
G1 X112.411 Y100.788 E.00521
;WIDTH:0.551054
G1 X112.287 Y100.839 E.00567
;WIDTH:0.594739
G1 X112.163 Y100.89 E.00615
;WIDTH:0.638424
G1 X112.038 Y100.942 E.0067
G1 X112.069 Y100.86 E.00434
;WIDTH:0.592346
G1 X112.099 Y100.779 E.00395
;WIDTH:0.546268
G1 X112.13 Y100.698 E.00363
;WIDTH:0.500189
G1 X112.311 Y100.392 E.01352
;WIDTH:0.460094
G1 X112.492 Y100.086 E.01233
;WIDTH:0.419999
G1 X112.607 Y99.619 E.01508
G1 X112.717 Y99.028 E.01885
;WIDTH:0.430804
G1 X112.617 Y98.411 E.02016
;WIDTH:0.478687
G1 X112.621 Y98.314 E.00352
;WIDTH:0.52657
G1 X112.625 Y98.217 E.0039
;WIDTH:0.574453
G1 X112.628 Y98.12 E.00429
;WIDTH:0.622336
G1 X112.632 Y98.023 E.00468
G1 X112.66 Y98.059 E.0022
;WIDTH:0.599976
G1 X112.763 Y98.195 E.0079
;WIDTH:0.554982
G1 X112.867 Y98.331 E.00729
;WIDTH:0.509988
G1 X112.97 Y98.468 E.00666
;WIDTH:0.464994
G1 X113.073 Y98.604 E.00599
;WIDTH:0.419999
G1 X113.246 Y98.74 E.0069
G1 X113.527 Y98.855 E.00952
G1 X128.671 Y102.333 E.48719
G1 X129.028 Y102.345 E.0112
G1 X129.343 Y102.236 E.01045
G1 X129.568 Y102.061 E.00894
G1 X130.342 Y101.24 E.03538
G1 X131.122 Y100.732 E.02919
G1 X132 Y100.422 E.02919
G1 X132.927 Y100.327 E.02922
G1 X133.849 Y100.453 E.02918
G1 X134.716 Y100.793 E.0292
G1 X135.479 Y101.327 E.0292
G1 X136.095 Y102.026 E.02921
G1 X136.528 Y102.85 E.02919
G1 X136.756 Y103.753 E.0292
G1 X136.765 Y104.684 E.02919
G1 X136.554 Y105.591 E.0292
G1 X136 Y106.712 E.03921
G1 X135.951 Y107.108 E.01251
G1 X135.974 Y107.247 E.00442
G1 X136.098 Y107.535 E.00983
G1 X144.561 Y120.596 E.48797
G1 X144.255 Y120.67 E.00987
G1 X143.643 Y120.963 E.02127
G1 X143.303 Y121.238 E.01371
G1 X142.995 Y121.638 E.01583
G1 X135.19 Y109.575 E.45049
G1 X134.987 Y109.351 E.00948
G1 X134.738 Y109.208 E.009
G1 X134.411 Y109.145 E.01044
G1 X133.839 Y109.26 E.01829
G1 X133.534 Y109.443 E.01115
G1 X133.303 Y109.76 E.0123
G1 X133.225 Y110.051 E.00945
G1 X132.156 Y120.876 E.34106
G1 X131.764 Y120.677 E.01378
G1 X131.337 Y120.576 E.01376
G1 X130.659 Y120.578 E.02126
G1 X130.346 Y120.649 E.01006
G1 X129.825 Y121.323 F9000
G1 F1200
G1 X129.936 Y120.429 E.02825
G1 X131.108 Y108.615 E.37224
G1 X131.045 Y108.294 E.01026
G1 X130.874 Y108.099 E.00813
G1 X129.99 Y107.468 E.03405
G1 X129.361 Y106.769 E.02948
G1 X128.952 Y106.044 E.0261
G1 X128.527 Y104.785 E.04166
G1 X128.364 Y104.611 E.00748
G1 X128.168 Y104.525 E.00671
G1 X113.024 Y101.047 E.48719
G1 X112.755 Y101.051 E.00844
G1 X112.54 Y101.16 E.00756
G1 X111.722 Y101.828 E.03311
G1 X110.894 Y102.188 E.02831
G1 X110 Y102.311 E.02829
G1 X109.106 Y102.188 E.02829
G1 X108.278 Y101.828 E.02831
G1 X107.785 Y101.425 E.01996
G1 X107.302 Y101.069 E.01881
G1 X106.976 Y101.047 E.01024
G1 X91.832 Y104.524 E.48718
G1 X91.591 Y104.645 E.00846
G1 X91.417 Y104.911 E.00997
G1 X91.097 Y105.96 E.03439
G1 X90.626 Y106.787 E.02984
G1 X89.986 Y107.49 E.02981
G1 X89.207 Y108.035 E.02981
G1 X88.328 Y108.397 E.02981
G1 X87.498 Y108.538 E.0264
G1 X87.112 Y108.542 E.0121
G1 X86.186 Y108.503 E.02906
G1 X85.937 Y108.602 E.0084
G1 X85.79 Y108.756 E.00668
G1 X77.435 Y121.66 E.482
G1 X76.944 Y122.46 E.02943
G1 X76.925 Y122.287 E.00546
G1 X76.811 Y122.004 E.00957
G1 X76.398 Y121.468 E.02122
G1 X76.194 Y121.303 E.00823
G1 X75.582 Y121.011 E.02126
G1 X75.315 Y120.956 E.00855
G1 X74.721 Y120.98 E.01864
G1 X75.238 Y120.222 E.02877
G1 X83.636 Y107.231 E.48502
G1 X83.674 Y106.973 E.00818
G1 X83.616 Y106.768 E.00668
G1 X83.089 Y105.72 E.03678
G1 X82.858 Y104.725 E.03203
G1 X82.867 Y103.704 E.03201
G1 X83.117 Y102.714 E.03202
G1 X83.593 Y101.81 E.03203
G1 X84.268 Y101.044 E.03201
G1 X85.104 Y100.458 E.03201
G1 X86.055 Y100.086 E.03202
G1 X87.067 Y99.947 E.03203
G1 X88.083 Y100.051 E.03202
G1 X89.046 Y100.391 E.03202
G1 X89.902 Y100.949 E.03204
G1 X90.729 Y101.824 E.03775
G1 X91.037 Y101.974 E.01074
G1 X91.244 Y101.965 E.0065
G1 X106.389 Y98.487 E.48722
G1 X106.704 Y98.288 E.01168
G1 X106.777 Y98.169 E.00438
G1 X107.185 Y97.269 E.03098
G1 X107.713 Y96.616 E.02633
G1 X108.388 Y96.117 E.02632
G1 X109.167 Y95.804 E.02632
G1 X110 Y95.698 E.02633
G1 X110.833 Y95.804 E.02633
G1 X111.612 Y96.117 E.02632
G1 X112.287 Y96.616 E.02632
G1 X112.815 Y97.269 E.02633
G1 X113.223 Y98.169 E.03098
G1 X113.443 Y98.418 E.01042
G1 X113.611 Y98.487 E.00569
G1 X128.755 Y101.965 E.48719
G1 X129.058 Y101.952 E.00951
G1 X129.294 Y101.802 E.00877
G1 X130.098 Y100.949 E.03675
G1 X130.954 Y100.391 E.03204
G1 X131.917 Y100.051 E.03202
G1 X132.933 Y99.947 E.03202
G1 X133.945 Y100.086 E.03203
G1 X134.896 Y100.458 E.03202
G1 X135.732 Y101.044 E.03201
G1 X136.407 Y101.81 E.03201
G1 X136.883 Y102.714 E.03203
G1 X137.133 Y103.704 E.03202
G1 X137.142 Y104.725 E.03201
G1 X136.911 Y105.72 E.03203
G1 X136.384 Y106.768 E.03678
G1 X136.326 Y107.074 E.00977
G1 X136.415 Y107.33 E.0085
G1 X144.77 Y120.233 E.48197
G1 X145.279 Y120.98 E.02834
G1 X144.685 Y120.956 E.01864
G1 X144.418 Y121.01 E.00854
G1 X143.806 Y121.303 E.02127
G1 X143.602 Y121.468 E.00823
G1 X143.189 Y122.004 E.02122
G1 X143.075 Y122.287 E.00957
G1 X143.055 Y122.46 E.00546
G1 X142.578 Y121.68 E.02867
G1 X134.873 Y109.78 E.4445
G1 X134.752 Y109.646 E.00566
G1 X134.602 Y109.56 E.00542
G1 X134.406 Y109.522 E.00626
G1 X134.077 Y109.583 E.01049
G1 X133.831 Y109.687 E.00837
G1 X133.647 Y109.914 E.00916
G1 X133.601 Y110.089 E.00567
G1 X132.544 Y120.75 E.33591
G1 X132.481 Y121.62 E.02735
G1 X132.198 Y121.319 E.01295
G1 X131.594 Y121.014 E.02122
G1 X131.338 Y120.954 E.00824
